teeny/solid/linux.svg

<svg width="15" height="15" viewBox="0 0 15 15" fill="none" xmlns="http://www.w3.org/2000/svg">
<path d="M5 8V7H6V8H5Z" fill="black"/>
<path d="M9 8V7H10V8H9Z" fill="black"/>
<path fill-rule="evenodd" clip-rule="evenodd" d="M1.00001 6.5C1.00001 2.91015 3.91016 0 7.50001 0C11.0899 0 14 2.91015 14 6.5V13.014C14 13.1926 14.0709 13.3638 14.1972 13.4901L14.8536 14.1464C14.9966 14.2894 15.0393 14.5045 14.962 14.6913C14.8846 14.8782 14.7022 15 14.5 15H0.500015C0.297783 15 0.115465 14.8782 0.0380749 14.6913C-0.0393156 14.5045 0.00346218 14.2894 0.146461 14.1464L0.802841 13.4901C0.929089 13.3638 1.00001 13.1926 1.00001 13.014V6.5ZM4 6.5C4 5.67157 4.67157 5 5.5 5C6.32843 5 7 5.67157 7 6.5V7.5C7 8.32843 6.32843 9 5.5 9C4.67157 9 4 8.32843 4 7.5V6.5ZM8 6.5C8 5.67157 8.67157 5 9.5 5C10.3284 5 11 5.67157 11 6.5V7.5C11 8.32843 10.3284 9 9.5 9C8.67157 9 8 8.32843 8 7.5V6.5ZM4.59302 10.5125C6.42295 9.59755 8.57687 9.59755 10.4068 10.5125L10.6558 10.637L10.5606 10.7323C9.74883 11.544 8.64788 12.0001 7.49991 12.0001C6.35194 12.0001 5.25099 11.544 4.43925 10.7323L4.34399 10.637L4.59302 10.5125Z" fill="black"/>
</svg>

<svg viewBox="0 0 15 15" xmlns="http://www.w3.org/2000/svg"><g><path d="M5 8V7h1v1H5Z"/><path d="M9 8V7h1v1H9Z"/><path fill-rule="evenodd" d="M1 6.5C1 2.91 3.91 0 7.5 0c3.58 0 6.49 2.91 6.49 6.5v6.51c0 .17.07.34.19.47l.65.65c.14.14.18.35.1.54 -.08.18-.26.3-.47.3h-14c-.21 0-.39-.13-.47-.31 -.08-.19-.04-.41.1-.55l.65-.66c.12-.13.19-.3.19-.48V6.45Zm2.99 0c0-.83.67-1.5 1.5-1.5 .82 0 1.5.67 1.5 1.5v1c0 .82-.68 1.5-1.5 1.5 -.83 0-1.5-.68-1.5-1.5v-1Zm4 0c0-.83.67-1.5 1.5-1.5 .82 0 1.5.67 1.5 1.5v1c0 .82-.68 1.5-1.5 1.5 -.83 0-1.5-.68-1.5-1.5v-1Zm-3.41 4.01c1.82-.92 3.98-.92 5.81 0l.24.12 -.1.09c-.82.81-1.92 1.26-3.07 1.26s-2.25-.46-3.07-1.27l-.1-.1 .24-.13Z"/></g></svg>
